src/pos-icons/approximately-equal-box.svg

<svg height="24" viewBox="0 0 24 24" width="24" xmlns="http://www.w3.org/2000/svg"><path d="m19 3h-14c-1.1 0-2 .9-2 2v14c0 1.1.9 2 2 2h14c1.1 0 2-.9 2-2v-14c0-1.1-.9-2-2-2m-9.7 5.2c1.3 0 2.1.5 2.8.8.6.3 1.3.7 2.4.7 1 0 2-.7 2.5-1.2l.8 1.3c-.7.8-2 1.6-3.4 1.6-1.3 0-2.1-.5-2.7-.8s-1.4-.7-2.5-.7c-1 0-2 .7-2.5 1.2l-.7-1.3c.7-.8 2-1.6 3.3-1.6m5.3 7.6c-1.3 0-2.1-.5-2.8-.8-.6-.3-1.4-.7-2.5-.7-1 0-2 .7-2.5 1.2l-.8-1.4c.7-.8 2-1.6 3.3-1.6s2.1.5 2.8.8c.6.3 1.3.7 2.5.7 1 0 2-.7 2.5-1.2l.8 1.3c-.6.9-1.9 1.7-3.3 1.7z"/></svg>

<?xml version="1.0" encoding="UTF-8"?><!DOCTYPE svg PUBLIC "-//W3C//DTD SVG 1.1//EN" "http://www.w3.org/Graphics/SVG/1.1/DTD/svg11.dtd"><svg xmlns="http://www.w3.org/2000/svg" xmlns:xlink="http://www.w3.org/1999/xlink" version="1.1" id="mdi-approximately-equal-box" width="24" height="24" viewBox="0 0 24 24"><path d="M19 3H5C3.9 3 3 3.9 3 5V19C3 20.1 3.9 21 5 21H19C20.1 21 21 20.1 21 19V5C21 3.9 20.1 3 19 3M9.3 8.2C10.6 8.2 11.4 8.7 12.1 9C12.7 9.3 13.4 9.7 14.5 9.7C15.5 9.7 16.5 9 17 8.5L17.8 9.8C17.1 10.6 15.8 11.4 14.4 11.4C13.1 11.4 12.3 10.9 11.7 10.6C11.1 10.3 10.3 9.9 9.2 9.9C8.2 9.9 7.2 10.6 6.7 11.1L6 9.8C6.7 9 8 8.2 9.3 8.2M14.6 15.8C13.3 15.8 12.5 15.3 11.8 15C11.2 14.7 10.4 14.3 9.3 14.3C8.3 14.3 7.3 15 6.8 15.5L6 14.1C6.7 13.3 8 12.5 9.3 12.5C10.6 12.5 11.4 13 12.1 13.3C12.7 13.6 13.4 14 14.6 14C15.6 14 16.6 13.3 17.1 12.8L17.9 14.1C17.3 15 16 15.8 14.6 15.8Z" /></svg>
